X:2236

M:3/4
L:1/8
K:Am
| e(e/^f/ g)(e f)d | ^ff (a^g) e2 | e(e/^f/ g)(e f)d | e/c e/B e/_B e/Az |z(e/^f/ g)(e f)d | ^ff (a^g) e2| 
a/g/f/e/ d/c/B/A/ G/A/B/G/ | AA3z2 | AA3z2 | A/A/ z6 ||
(:musicend:)


(:music:)
